public/img/assets/icons/weather-conditions/small/rain-snow-showers-night.svg

<svg width="24" height="24" viewBox="0 0 24 24" fill="none" xmlns="http://www.w3.org/2000/svg">
<path d="M13.0024 5.67615C16.1714 5.67615 17.9684 7.86052 18.2304 10.4991H18.3104C18.7946 10.4984 19.2743 10.5971 19.7219 10.7895C20.1696 10.982 20.5765 11.2644 20.9193 11.6206C21.2621 11.9769 21.5343 12.4 21.7201 12.8659C21.9059 13.3317 22.0019 13.8311 22.0024 14.3355C22.0017 14.8399 21.9057 15.3392 21.7198 15.8049C21.5339 16.2706 21.2618 16.6936 20.9189 17.0497C20.5761 17.4059 20.1693 17.6882 19.7217 17.8806C19.2741 18.073 18.7946 18.1716 18.3104 18.1709H7.69438C7.2102 18.1716 6.73062 18.073 6.28305 17.8806C5.83547 17.6882 5.42865 17.4059 5.08581 17.0497C4.74298 16.6936 4.47084 16.2706 4.28495 15.8049C4.09905 15.3392 4.00304 14.8399 4.00238 14.3355C4.00291 13.8311 4.09883 13.3317 4.28466 12.8659C4.4705 12.4 4.74261 11.9769 5.08546 11.6206C5.42831 11.2644 5.83517 10.982 6.28281 10.7895C6.73046 10.5971 7.21011 10.4984 7.69438 10.4991H7.77438C8.03738 7.84281 9.83438 5.67615 13.0024 5.67615Z" fill="#D580FF"/>
<path d="M6.58843 1.00119C7.38536 1.04529 8.1608 1.28228 8.85137 1.69279C9.86579 2.29132 10.6465 3.23239 11.0603 4.35553C9.07536 4.93118 7.6554 6.40877 7.06642 8.40455L6.99642 8.65697L6.93942 8.90118L6.73343 8.94017C5.607 9.18503 4.60844 9.84828 3.92951 10.8026L3.77451 10.7153C3.1213 10.3294 2.56033 9.79864 2.13256 9.16181C2.06731 9.06471 2.02468 8.95351 2.00797 8.83681C1.99126 8.72011 2.00091 8.60103 2.03619 8.48877C2.07146 8.37651 2.13141 8.27407 2.21141 8.18937C2.29141 8.10466 2.38931 8.03996 2.49755 8.00026C4.1405 7.39691 5.02548 6.71763 5.53146 5.72641C6.08445 4.64387 6.18644 3.49566 5.81946 1.95342C5.79144 1.83658 5.79052 1.71463 5.81676 1.59736C5.84301 1.48008 5.89568 1.37076 5.97055 1.27816C6.04543 1.18557 6.14042 1.11227 6.2479 1.06417C6.35538 1.01607 6.47236 0.994499 6.58943 1.00119H6.58843Z" fill="#D580FF"/>
<path d="M6.7496 21.0313C6.62177 21.0312 6.49608 20.9971 6.38446 20.9322C6.27284 20.8673 6.179 20.7738 6.11184 20.6605C6.04469 20.5472 6.00644 20.4179 6.00075 20.2849C5.99505 20.1519 6.02208 20.0195 6.07929 19.9005L7.20429 17.5567C7.2933 17.3714 7.44934 17.2305 7.63808 17.165C7.82682 17.0996 8.03279 17.1149 8.21069 17.2076C8.3886 17.3003 8.52385 17.4628 8.58671 17.6594C8.64956 17.856 8.63486 18.0706 8.54585 18.2559L7.42085 20.5997C7.3585 20.7295 7.26267 20.8386 7.1441 20.9148C7.02554 20.9911 6.88893 21.0314 6.7496 21.0313Z" fill="#D580FF"/>
<path d="M10.7496 21.0313C10.6218 21.0312 10.4961 20.9971 10.3845 20.9322C10.2728 20.8673 10.179 20.7738 10.1118 20.6605C10.0447 20.5472 10.0064 20.4179 10.0007 20.2849C9.99505 20.1519 10.0221 20.0195 10.0793 19.9005L11.2043 17.5567C11.2933 17.3714 11.4493 17.2305 11.6381 17.165C11.8268 17.0996 12.0328 17.1149 12.2107 17.2076C12.3886 17.3003 12.5239 17.4628 12.5867 17.6594C12.6496 17.856 12.6349 18.0706 12.5459 18.2559L11.4208 20.5997C11.3585 20.7295 11.2627 20.8386 11.1441 20.9148C11.0255 20.9911 10.8889 21.0314 10.7496 21.0313Z" fill="#D580FF"/>
<ellipse cx="14.75" cy="19.9896" rx="0.75" ry="0.78125" fill="#D580FF"/>
<ellipse cx="18.75" cy="19.9896" rx="0.75" ry="0.78125" fill="#D580FF"/>
<ellipse cx="16.75" cy="22.0729" rx="0.75" ry="0.78125" fill="#D580FF"/>
</svg>

<svg width="24" height="24" fill="none" xmlns="http://www.w3.org/2000/svg"><path d="M13.002 5.676c3.17 0 4.966 2.185 5.228 4.823h.08c.485 0 .964.098 1.412.29.448.193.854.475 1.197.832.343.356.615.779.801 1.245a3.98 3.98 0 0 1 0 2.939 3.853 3.853 0 0 1-.801 1.245 3.68 3.68 0 0 1-1.197.83 3.558 3.558 0 0 1-1.412.29H7.694c-.484.002-.963-.097-1.41-.29a3.68 3.68 0 0 1-1.198-.83 3.854 3.854 0 0 1-.801-1.245 3.98 3.98 0 0 1 0-2.94c.186-.465.458-.888.8-1.244.343-.357.75-.639 1.198-.832a3.56 3.56 0 0 1 1.411-.29h.08c.263-2.656 2.06-4.823 5.228-4.823ZM6.588 1.001a4.964 4.964 0 0 1 2.263.692 5.154 5.154 0 0 1 2.21 2.663c-1.986.575-3.406 2.053-3.995 4.049l-.07.252-.057.244-.206.04a4.661 4.661 0 0 0-2.803 1.862l-.155-.088a5.114 5.114 0 0 1-1.642-1.553A.781.781 0 0 1 2.498 8C4.14 7.397 5.025 6.718 5.53 5.726c.553-1.082.655-2.23.288-3.773a.789.789 0 0 1 .152-.675.752.752 0 0 1 .618-.277Z" fill="#D580FF"/><path d="M6.75 21.031a.727.727 0 0 1-.366-.099.764.764 0 0 1-.272-.271.805.805 0 0 1-.033-.76l1.125-2.344a.76.76 0 0 1 .434-.392.723.723 0 0 1 .573.043.773.773 0 0 1 .376.451.811.811 0 0 1-.041.597L7.42 20.6a.77.77 0 0 1-.277.315.727.727 0 0 1-.394.116ZM10.75 21.031a.727.727 0 0 1-.366-.099.764.764 0 0 1-.272-.271.805.805 0 0 1-.033-.76l1.125-2.344a.76.76 0 0 1 .434-.392.723.723 0 0 1 .573.043.772.772 0 0 1 .376.451.81.81 0 0 1-.041.597L11.42 20.6a.77.77 0 0 1-.277.315.728.728 0 0 1-.394.116Z" fill="#D580FF"/><ellipse cx="14.75" cy="19.99" rx=".75" ry=".781" fill="#D580FF"/><ellipse cx="18.75" cy="19.99" rx=".75" ry=".781" fill="#D580FF"/><ellipse cx="16.75" cy="22.073" rx=".75" ry=".781" fill="#D580FF"/></svg>
